X: 1
T:Teviot Bridge
R:Jig
C:Trad.-Richard Wood
O:Scotland
M:6/8
L:1/8
K:G
e|dBG D2G|E2G D2G|DED D2d|c2B A2G|!
dBG D2G|E2G D2B|c2e dBG|A3 G2!
|:e|dBG GBd|efe efg|dBG GBG|AFD D2e|!
dBG GBd|gfe dcB|1 .c2g dBG:|2 .ceg dBG|!
A3 G2||!
